!!!!SEGMENT: pl-sa--276-a-vii-36--002_m-m--zemdlony-jezus.krn
!!!cenid: 17xx:1232
!!!COM: M.M.
!!!COM-rismID: pe30002031
!!!CDT:
!!!CNT:
!!!OTL: Zemdlony Jezus
!!!PDT: 1714
!!!AGN: Sacred
!!!SMS-siglum: PL-SA
!!!SMS-shelfmark: 276/A VII 36
!!!SMS-shelfwork: 002 W
!!!SMS-variant:
!!!SMS-altvar:
!!!NIFC-rismSourceID: 1001041689
!!!NIFC-rismChildID: 1001041689
!!!NIFC-islandoraID: none
!!!URL-pdf-islandora:
!!!URL-scan: https://bc.bdsandomierz.pl/dlibra/publication/1759/edition/1727/content @EN{Scan in the Sandomierz Diocese Digital Library} @PL{Skany w portalu Cyfrowa Biblioteka Diecezjalna w Sandomierzu}
!!!ONB-nifc: UWAGA: utwory w zbiorze: 1. Ach, ciężka żałość, 2. Zemdlony Jezus
!!!AIN: 2 soprn 2 violn
!!!key: g
**kern	**fba	**kern	**kern	**kern	**text	**text	**text	**text	**kern	**text	**text	**text	**text
*	*	*group2	*group2	*group1	*	*	*	*	*group1	*	*	*	*
*part5	*part5	*part4	*part3	*part2	*part2	*part2	*part2	*part2	*part1	*part1	*part1	*part1	*part1
*staff5	*	*staff4	*staff3	*staff2	*staff2	*staff2	*staff2	*staff2	*staff1	*staff1	*staff1	*staff1	*staff1
*I"[basso continuo]	*	*I"Violino 2do	*I"Violino 1mo	*I"Canto 2do.	*	*	*	*	*I"Canto 1mo.	*	*	*	*
*I'[bc]	*	*I'vl II	*I'vl I	*I'S II	*	*	*	*	*I'S I	*	*	*	*
*	*	*Ivioln	*Ivioln	*Isoprn	*	*	*	*	*Isoprn	*	*	*	*
*	*	*ICstr	*ICstr	*ICvox	*	*	*	*	*ICvox	*	*	*	*
*clefF4	*	*clefG2	*clefG2	*clefC1	*	*	*	*	*clefC1	*	*	*	*
*k[e-a-b-]	*	*k[e-b-]	*k[e-b-]	*k[e-b-]	*	*	*	*	*k[e-b-]	*	*	*	*
*g:	*	*g:	*g:	*g:	*	*	*	*	*g:	*	*	*	*
*M2/2	*	*M2/2	*M2/2	*M2/2	*	*	*	*	*M2/2	*	*	*	*
*met(c|)	*	*met(c|)	*met(c|)	*met(c|)	*	*	*	*	*met(c|)	*	*	*	*
=1	=1	=1	=1	=1	=1	=1	=1	=1	=1	=1	=1	=1	=1
*all\right	*	*all\right	*all\right	*all\right	*	*	*	*	*all\right	*	*	*	*
*	*	*2\right	*2\right	*2\right	*	*	*	*	*2\right	*	*	*	*
!	!	!LO:TX:a:t=P:problem=# above	!	!LO:TX:a:t=P:problem=# above	!	!	!	!	!	!	!	!	!
!	!	!LO:N:acc=#	!	!LO:N:acc=#	!	!	!	!	!	!	!	!	!
!LO:TX:t=P:problem=przy kluczu błędnie A- E- BB-	!	!	!	!LO:TX:t=P:problem=znaki e- B-	!	!	!	!	!LO:TX:t=P:problem=znaki ee- b-	!	!	!	!
!	!	!LO:TX:a:t=Plankt 2do.	!LO:TX:a:t=Plankt 2do.	!	!	!	!	!	!	!	!	!	!
2GG/	#	2bn\	2dd\	2bn\	Zem-	O	Kto	O	2dd\	Zem-	O	Kto	O
4GG/	.	4b\	4dd\	4b\	-dlą-	nie-	bẏ	Ja-	4dd\	-dlo-	nie-	bÿ	Ja-
!	!	!LO:TX:a:t=P:problem=# above	!	!LO:TX:a:t=P:problem=# above	!	!	!	!	!	!	!	!	!
!	!	!LO:N:acc=#	!	!LO:N:acc=#	!	!	!	!	!	!	!	!	!
4GG/	.	4bn\	4dd\	4bn\	-nẏ	-wdzięc-	był	-ka	4dd\	-nÿ	-wdziec-	bÿł	-ka
=2	=2	=2	=2	=2	=2	=2	=2	=2	=2	=2	=2	=2	=2
8C/L	.	2cc\	2ee-T\	2cc\	Je-	-ni-	ta-	Mi-	2ee-\	Je-	-ni-	ta-	mi-
8D/	.	.	.	.	.	.	.	.	.	.	.	.	.
8E-/	.	.	.	.	.	.	.	.	.	.	.	.	.
8F/J	6 5	.	.	.	.	.	.	.	.	.	.	.	.
!	!	!LO:TX:a:t=P:problem=# above	!	!LO:TX:a:t=P:problem=# above	!	!	!	!	!	!	!	!	!
!	!	!LO:N:acc=#	!	!LO:N:acc=#	!	!	!	!	!	!	!	!	!
2GG/	#	2bn\	2dd\	2bn\	-zus	-ku	-ki	-losc	2dd\	-zus	-ku	-kÿ	-losc
=3	=3	=3	=3	=3	=3	=3	=3	=3	=3	=3	=3	=3	=3
4.BB-/	.	4.b-\	4.dd\	4.b-\	od	Cłe-	bÿ	Je-	4.dd\	od	Cłe-	bÿ	Je-
8BB-/	.	8b-\	8dd\	8b-\	cięsz-	-cze	u-	-dÿ-	8dd\	Cięsz-	-cze	U-	-di-
4C/	-	4cc\	4ee-\	4cc\	-kych	za-	-marł	-nÿ	4ee-\	-kÿch	Za-	-marł	-ni
8D\L	6 -	4b-\	4dd\	4b-\	ran	-ka-	Za	moÿ	4dd\	ran	-ka-	Za	moÿ
8E-\J	6 5	.	.	.	.	.	.	.	.	.	.	.	.
!LO:LB:g=original	!	!	!	!	!	!	!	!	!	!	!	!	!
=4	=4	=4	=4	=4	=4	=4	=4	=4	=4	=4	=4	=4	=4
*k[e-b-]	*	*	*	*	*	*	*	*	*	*	*	*	*
!LO:TX:t=P:problem=mixed beam	!	!	!	!	!	!	!	!	!	!	!	!	!
!LO:TX:t=P:problem=tu poprawne znaki E- BB-	!	!	!	!	!	!	!	!	!	!	!	!	!
8F\L	.	2f/	2ccT\	2f/	ſro-	-mia-	ko-	Bo-	2cc\	ſro-	-Mia-	ko-	Bo-
8E-\	.	.	.	.	.	.	.	.	.	.	.	.	.
8F\	.	.	.	.	.	.	.	.	.	.	.	.	.
8FF/J	.	.	.	.	.	.	.	.	.	.	.	.	.
!	!	!	!	!	!	!	!	!	!LO:SIC:v:l:s=-dze:verse 1	!	!	!	!
2BB-/	.	2d/	2b-\	2d/	-dze	-lÿ	-go	-ze	2b-\	-dzie	-lÿ	-go.	-ze
=5	=5	=5	=5	=5	=5	=5	=5	=5	=5	=5	=5	=5	=5
!	!	!	!	!LO:TX:a:t=P:problem=# above	!	!	!	!	!	!	!	!	!
2D/	#	2f#X/	2a/	2f#X/	Ni	Wi-	kto	twa	2a\	Ni	Wÿ-	kto	twa
4GG/	.	4g/	4b-/	4g/	maſz	-dziſz	bÿ	ku	4b-\	maſz	-dziſz	bÿ	ku
!	!	!	!LO:TX:a:t=P:problem=♯ above	!	!	!	!	!	!	!	!	!	!
4D/	#	4d/	4f#X/	4d/	ta-	dla.	dług	nąm	4f#X/	ta-	dla	dług	nąm
=6	=6	=6	=6	=6	=6	=6	=6	=6	=6	=6	=6	=6	=6
4E-\	5	2e-/	2g/	2e-/	-kie-	Cie-	pla-	grze-	2g/	-kie-	Cie-	pła-	grze-
8BB-/L	6 5	.	.	.	.	.	.	.	.	.	.	.	.
8C/J	6 5	.	.	.	.	.	.	.	.	.	.	.	.
!	!	!	!LO:TX:a:t=P:problem=♯ above	!	!	!	!	!	!	!	!	!	!
2D/	#	2d/	2f#X/	2d/	-go.	-bie	-cąc	-ſznym	2f#X/	-go.	-bie	-cąc	-ſznym
!	!	!LO:LB:g=original	!	!	!	!	!	!	!	!	!	!	!
=7	=7	=7	=7	=7	=7	=7	=7	=7	=7	=7	=7	=7	=7
4.FF/	.	4.a/	4.cc\	4.a\	Kto	od	tak	Ƶe	4.cc\	Kto	od	tak	Ƶe
8FF/	.	8a/	8cc\	8a\	bẏ	mąk	U-	nam	8cc\	bÿ	mąk	U-	nam
!	!	!	!LO:LB:g=original	!	!	!	!	!	!	!	!	!	!
4FF/	.	4a/	4cc\	4a\	mu̇	ieſt	-mie-	do-	4cc\	mu̇	ieſt	-mie-	do-
!	!	!	!	!	!	!	!	!	!LO:SIC:v:l:s=w tej:verse 1	!	!	!	!
8BB-/L	6	4g/	4b-\	4g\	W teÿ	zwąt-	-rał	-po-	4b-\	tweÿ	ƶwąt-	-rał	-po-
8C/J	6 5	.	.	.	.	.	.	.	.	.	.	.	.
=8	=8	=8	=8	=8	=8	=8	=8	=8	=8	=8	=8	=8	=8
!	!	!	!	!LO:SIC:v:l:s=trwo-:verse 1	!	!	!	!	!	!	!	!	!
!	!	!	!	!LO:TX:a:t=P:problem=♯ above	!	!	!	!	!	!	!	!	!
8D/L	#	2d/	2at/	2f#X/	twro-	-la-	ſro-	-Mo-	2a/	trwo-	-la-	ſro-	-Mo-
8C/	.	.	.	.	.	.	.	.	.	.	.	.	.
8D/	.	.	.	.	.	.	.	.	.	.	.	.	.
8DD/J	.	.	.	.	.	.	.	.	.	.	.	.	.
!	!	!LO:TX:a:t=P:problem=# above	!	!	!	!	!	!	!	!	!	!	!
!	!	!LO:N:acc=#	!	!	!	!	!	!	!LO:SIC:v:l:s=-dze:verse 1	!	!	!	!
2GG/	#	2Bn/	2g/	2g/	-dze.	-łÿ	-go.	-ze.	2g/	-dzie	-łÿ	-go.	-ze.
!LO:LB:g=original	!	!	!	!LO:LB:g=original	!	!	!	!	!LO:LB:g=original	!	!	!	!
=9||	=9||	=9||	=9||	=9||	=9||	=9||	=9||	=9||	=9||	=9||	=9||	=9||	=9||
!	!	!	!	!LO:TX:a:t=P:problem=♯ above	!	!	!	!	!	!	!	!	!
2D/	#	2f#Xt/	2a/	2f#X/	Po-	Je-	Nie	U-	2a\	Po-	Je-	Nie	U-
4GG/	-	4g/	4b-\	4g/	-cie-	-zus	był	-bła-	4b-\	-cie-	-zus	bẏł	-bła-
4FF/	.	4a/	4cc\	4a/	-chę	na	y	-gac	4cc\	-chę	na	ẏ	-gac.
=10	=10	=10	=10	=10	=10	=10	=10	=10	=10	=10	=10	=10	=10
2BB-/	.	2b-/	2dd\	2b-\	cży-	krzy-	nie	Bo-	2dd\	czÿ-	krzẏ-	Nie	Bo-
2BB-/	.	2b-/	2dd\	2b-\	-nił	-zu	maſz	-ga	2dd\	-nił	-żu̇	maſz	-ga
=11	=11	=11	=11	=11	=11	=11	=11	=11	=11	=11	=11	=11	=11
4.FF/	.	4.a/	4.cc\	4.a\	ni	Wi-	y	y	4.cc\	ni	Wi-	ÿ	I
8FF/	.	8a/	8cc\	8a\	po-	-ſi	Ni-	znim	8cc\	po-	-ſi	ni-	znim
4BB-/	.	4b-/	4dd\	4b-\	-li-	y	-gdy	zyć	4dd\	-li-	ÿ	-gdÿ	zic
8C/L	-	8cc/L	8ee-\L	(8cc\L	-to-	U-	Nie	na	(8ee-\L	-to-	U-	Nie	Na
8D/J	6 -	8b-/J	8dd\J	8b-\J)	.	.	.	.	8dd\J)	.	.	.	.
=12	=12	=12	=12	=12	=12	=12	=12	=12	=12	=12	=12	=12	=12
!LO:TX:t=P:problem=mixed beam	!	!	!	!	!	!	!	!	!	!	!	!	!
8F\L	.	2fT/	2ccT\	2a\	-wa-	-Mie-	bę-	wie-	2cc\	-Wa-	-Mie-	Be-	Wie-
8E-\	6 5	.	.	.	.	.	.	.	.	.	.	.	.
8F\	4	.	.	.	.	.	.	.	.	.	.	.	.
.	3	.	.	.	.	.	.	.	.	.	.	.	.
8FF/J	.	.	.	.	.	.	.	.	.	.	.	.	.
2BB-/	.	2d/	2b-\	2b-\	-nia	-ra	-dzie	-ki	2b-\	-nia	-ra	-dzie	-ki
!	!	!LO:LB:g=original	!	!	!	!	!	!	!	!	!	!	!
=13	=13	=13	=13	=13	=13	=13	=13	=13	=13	=13	=13	=13	=13
!	!	!	!	!LO:TX:a:t=P:problem=♯ above	!	!	!	!	!	!	!	!	!
2D/	#	2f#X/	2a/	2f#X/	By	Z du-	Ƶa	W kro-	2a\	Bÿ	Z du-	Ƶa	W kro-
4GG/	.	4g/	4b-/	4g/	się	-ſzą	Wi-	-les-	4b-\	ſię	-ſzą	Wi-	-le-
!	!	!	!LO:TX:a:t=P:problem=♯ above	!	!	!	!	!	!	!	!	!	!
4D/	#	4d/	4f#X/	4d/	u-	ſię	-no-	-ſtwie	4f#X/	u-	ſię	-no-	-stwie
!	!	!	!LO:LB:g=original	!	!	!	!	!	!	!	!	!	!
=14	=14	=14	=14	=14	=14	=14	=14	=14	=14	=14	=14	=14	=14
4E-\	5	2e-/	2g/	2e-/	-za-	Ze-	-Way-	ie-	2g/	-za-	Ƶe-	-Waẏ-	ie-
8BB-/L	6	.	.	.	.	.	.	.	.	.	.	.	.
8C/J	6 5	.	.	.	.	.	.	.	.	.	.	.	.
!	!	!	!LO:TX:a:t=P:problem=♯ above	!	!	!	!	!	!	!	!	!	!
2D/	#	2d/	2f#X/	2d/	-lił	-gna	-cę.	-go	2f#X/	-lił	-gna	-cę	-go.
!LO:LB:g=original	!	!	!	!	!	!	!	!	!	!	!	!	!
=15	=15	=15	=15	=15	=15	=15	=15	=15	=15	=15	=15	=15	=15
4.FF/	.	4.a/	4.cc\	4.a\	ie-	Nie-	Wię-	W kto-	4.cc\	ie-	Nie-	Wie-	W kto-
8FF/	.	8a/	8cc\	8a\	-go	-bo	-zien	-rym	8cc\	-go	-bo	-zien	-rÿm
4FF/	.	4a/	4cc\	4a\	Om-	ci	nie	ieſt	4cc\	Om-	ci	nie	ieſt
8BB-/L	6	4g/	4b-\	4g\	-dle-	o-	za-	przed	4b-\	-dle-	O-	za-	przed
8C/J	6 5	.	.	.	.	.	.	.	.	.	.	.	.
=16	=16	=16	=16	=16	=16	=16	=16	=16	=16	=16	=16	=16	=16
!	!	!	!	!LO:TX:a:t=P:problem=♯ above	!	!	!	!	!	!	!	!	!
8D/L	#	2d/	2at/	2f#X/	-wa-	-twie-	-ſię-	wie-	2a\	-Wa-	-twie-	-ſię-	Wie-
8C/	.	.	.	.	.	.	.	.	.	.	.	.	.
8D/	4	.	.	.	.	.	.	.	.	.	.	.	.
.	3	.	.	.	.	.	.	.	.	.	.	.	.
8DD/J	.	.	.	.	.	.	.	.	.	.	.	.	.
!	!	!LO:TX:a:t=P:problem=# above	!	!	!	!	!	!	!	!	!	!	!
!	!	!LO:N:acc=#	!	!	!	!	!	!	!	!	!	!	!
2GG/	#	2Bn/	2g/	2g/	-nia	-ra.	-dźie	-ki	2g/	-nia	-ra	-dzie	-ki
==	==	==	==	==	==	==	==	==	==	==	==	==	==
*-	*-	*-	*-	*-	*-	*-	*-	*-	*-	*-	*-	*-	*-
!!!system-decoration: [(g1)][(g2)]s5
!!!ENC: Andrzej Kubiczek
!!!END: 2020-11-15
!!!ENC: Marta Lawrence
!!!END: 2022-01-12
!!!YEC: Copyright 2022 Narodowy Instytut Fryderyka Chopina (https://polishscores.org)
!!!YEM: License CC-BY-4.0 (https://creativecommons.org/licenses/by/4.0)
